!!!OTL: I'm O'er Young to Marry yet 
!!!id: HA030
**kern
*clefG2
*k[b-e-]
*B-:
*M2/2
{8b-
=1
8dd
8ff
8ff
8gg
8.bb-
16ccc
8ddd}
{8ccc
=2
8bb-
8gg
8ff
8gg
8.ccc
16ddd
8ccc}
{8cc
=3
8dd
8ff
8ff
8gg
8.bb-
16ccc
8ddd}
{8bb-
=4
8ddd
8fff
8.ccc
16ddd
8bb-
8b-
8b-}
{8fff
=5
8ddd
8b-
8fff
8b-
8.ddd
16eee-
8fff}
{8ggg
=6
8ddd
8b-
8fff
8bb-
8ddd
8ccc
8ccc}
{8fff
=7
8ddd
8b-
8fff
8b-
8.ddd
16eee-
8fff}
{8ggg
=8
8ddd
8bb-
8ccc
8aa
8bb-
8b-
8b-}
==
*-
!!!minrhy: 16
!!!meter: 2/2 
!!!cut: I'm O'er Young to Marry yet 
!!!key: HA030  16 Bb 2/2 
!!!fog: a--b--av-c--d--dw-e--f--
!! Haydn: Volksliedbearbeitungen, Bd1
